img/svg/envelope.svg

<?xml version="1.0" encoding="utf-8"?><!DOCTYPE svg PUBLIC "-//W3C//DTD SVG 1.1//EN" "http://www.w3.org/Graphics/SVG/1.1/DTD/svg11.dtd"><svg version="1.1" baseProfile="full" xmlns="http://www.w3.org/2000/svg" xmlns:xlink="http://www.w3.org/1999/xlink" xmlns:ev="http://www.w3.org/2001/xml-events"   height="28px"   width="37px" ><path fill="rgb( 255, 102, 0 )" d="M32.375,0 C32.375,0 4.625,0 4.625,0 C2.07100000000003,0 0,2.08999999999997 0,4.66699999999997 C0,4.66699999999997 0,23.333 0,23.333 C0,25.91 2.07100000000003,28 4.625,28 C4.625,28 32.375,28 32.375,28 C34.929,28 37,25.91 37,23.333 C37,23.333 37,4.66699999999997 37,4.66699999999997 C37,2.08999999999997 34.929,0 32.375,0 ZM24.762,12.453 C24.762,12.453 34.552,3.988 34.552,3.988 C34.62,4.20600000000002 34.688,4.42500000000001 34.688,4.66699999999997 C34.688,4.66699999999997 34.688,23.333 34.688,23.333 C34.688,23.495 34.627,23.639 34.595,23.791 C34.595,23.791 24.762,12.453 24.762,12.453 ZM32.375,2.33300000000003 C32.529,2.33300000000003 32.664,2.39299999999997 32.809,2.42200000000003 C32.809,2.42200000000003 18.5,14.798 18.5,14.798 C18.5,14.798 4.19099999999997,2.42200000000003 4.19099999999997,2.42200000000003 C4.33600000000001,2.39299999999997 4.471,2.33300000000003 4.625,2.33300000000003 C4.625,2.33300000000003 32.375,2.33300000000003 32.375,2.33300000000003 ZM2.404,23.789 C2.37200000000001,23.636 2.31299999999999,23.495 2.31299999999999,23.333 C2.31299999999999,23.333 2.31299999999999,4.66699999999997 2.31299999999999,4.66699999999997 C2.31299999999999,4.42500000000001 2.38099999999997,4.20600000000002 2.44900000000001,3.988 C2.44900000000001,3.988 12.235,12.451 12.235,12.451 C12.235,12.451 2.404,23.789 2.404,23.789 ZM4.625,25.667 C4.39100000000002,25.667 4.17899999999997,25.598 3.96600000000001,25.532 C3.96600000000001,25.532 13.992,13.97 13.992,13.97 C13.992,13.97 17.748,17.217 17.748,17.217 C17.964,17.407 18.232,17.5 18.5,17.5 C18.768,17.5 19.036,17.407 19.252,17.217 C19.252,17.217 23.008,13.97 23.008,13.97 C23.008,13.97 33.034,25.532 33.034,25.532 C32.822,25.598 32.61,25.667 32.375,25.667 C32.375,25.667 4.625,25.667 4.625,25.667 Z "/></svg>

<svg baseProfile="full" xmlns="http://www.w3.org/2000/svg" height="28" width="37"><path fill="rgb( 255, 102, 0 )" d="M32.375 0h-27.75c-2.554 0-4.625 2.09-4.625 4.667v18.666c0 2.577 2.071 4.667 4.625 4.667h27.75c2.554 0 4.625-2.09 4.625-4.667v-18.666c0-2.577-2.071-4.667-4.625-4.667zm-7.613 12.453l9.79-8.465c.068.218.136.437.136.679v18.666c0 .162-.061.306-.093.458l-9.833-11.338zm7.613-10.12c.154 0 .289.06.434.089l-14.309 12.376-14.309-12.376c.145-.029.28-.089.434-.089h27.75zm-29.971 21.456c-.032-.153-.091-.294-.091-.456v-18.666c0-.242.068-.461.136-.679l9.786 8.463-9.831 11.338zm2.221 1.878c-.234 0-.446-.069-.659-.135l10.026-11.562 3.756 3.247c.216.19.484.283.752.283s.536-.093.752-.283l3.756-3.247 10.026 11.562c-.212.066-.424.135-.659.135h-27.75z"/></svg>
